X: 3
T: The Crosses Of Annagh
R: reel
M: 4/4
L: 1/8
K: Ador
EAAG A2Bd|eggd edBA|~G3B AEGE|DGBG AGED|EAAG A2Bd|~g3d edBA|GABd gedB|1 GAAG ~A3G:|2 GAAG A2Bd|||:eg~g2 a2ga|bgaf gedB|d^cde ~g3a|bgaf gefd|eg~g2 a2ga|bgaf gedB|GABd gedB|1 GAAG A2Bd:|2 GAAG ~A3G||


Tune 1170	Setting 1170

